X:1
T:Title
%%score { ( 1 3 ) | 2 }
L:1/8
M:4/4
K:Eb
V:1 treble nm="Grand Piano"
V:3 treble 
V:2 bass 
V:1
 z4 z2[Q:1/4=86] EF | G>G GF E2 EG |[M:3/4] [GB]3 [GB] [Ac][GB] |[M:1/4] EF |[M:4/4] GABc B2 GE | %5
[M:3/4] [DF]3 [CE] [DF][EG] |[M:1/4] [GB][FA] |[M:4/4] G>G GF E2 EG |[M:3/4] [GB]3 [GB] [Ac][GB] | %9
[M:1/4] [EG][GB] |[M:4/4] [Ge]>[Ad] ec B2 EF |[M:3/4] G3 [DF] [DF]E |[M:1/4] G[GB] | %13
[M:4/4] [Ge]>[Ge] [Ge][Ge] [Ge]3 d | d>c cc c3 c | c3 B [DAc]2 [DAB]2 |[M:3/4] B6 | %17
[M:1/4] [B,EG][B,GB] |[M:4/4] [Ge]>[Ge] [Ge][Ge] [Ge]3 d | d>c cc c3 c | B3 B [DAB]2 [Gd]2 | %21
[M:3/4] [Ge]6 |] %22
V:2
 z4 z2 [E,G,][E,A,E] | [E,B,E]>[E,B,E] [E,B,E][E,A,B,] [E,G,B,]2 [E,G,B,][E,B,E] | %2
[M:3/4] [E,E]3 [E,E] [E,E][E,E] |[M:1/4] [E,G,][E,A,E] | %4
[M:4/4] [E,B,E][F,E][G,E][A,E] [G,E]2 [E,B,E][E,G,] |[M:3/4] [B,,B,]3 [B,,B,] [B,,B,][B,,B,] | %6
[M:1/4] [B,,B,][B,,B,] |[M:4/4] [E,B,E]>[E,B,E] [E,B,E][E,A,B,] [E,G,B,]2 [E,G,B,][E,B,E] | %8
[M:3/4] [E,E]3 [E,E] [E,E][E,E] |[M:1/4] [E,B,][E,B,] | %10
[M:4/4] [E,B,]>[F,B,][K:treble] [G,B,G][A,E] [G,B,E]2 [A,C][A,CE] | %11
[M:3/4][K:bass] [B,E]3 [B,,A,] [B,,A,][E,G,] |[M:1/4] [E,B,E][D,B,] | %13
[M:4/4] [C,C]>[C,C] [C,C][C,C] [C,C]3[K:treble] [G,EF] | [A,E]>[A,EA] [A,EA][A,EA] [A,EA]3 [A,EA] | %15
 [B,DA]3 [B,DA][K:bass] B,,2 B,,2 |[M:3/4] B,,4 E,2 |[M:1/4] E,D, | %18
[M:4/4] [C,C]>[C,C] [C,C][C,C] [C,C]3[K:treble] [G,EF] | [A,E]>[A,EA] [A,EA][A,EA] [A,EA]3 [A,EA] | %20
 [B,DA]3 [B,DA][K:bass] B,,2 [B,,B,]2 |[M:3/4] [E,B,]6 |] %22
V:3
 x8 | x8 |[M:3/4] x6 |[M:1/4] x2 |[M:4/4] x8 |[M:3/4] x6 |[M:1/4] x2 |[M:4/4] x8 |[M:3/4] x6 | %9
[M:1/4] x2 |[M:4/4] x8 |[M:3/4] x6 |[M:1/4] x2 |[M:4/4] x8 | x8 | x8 |[M:3/4] [DA]4 [EG]2 | %17
[M:1/4] x2 |[M:4/4] x8 | x8 | x8 |[M:3/4] x6 |] %22

